X: 2891
T: Barney Brannigan
R: slip jig
M: 9/8
K: Dmajor
|:F2 A ABA ABA|F2 A ABA d2 f|
F2 A ABA ABA|1 B2 B e2 d cBA:|2 B2 B Bcd ecA||
|:f2 a f2 a f2 d|f2 a f2 a gfe|
|:f3 a3 d3|g2 f e2 d cBA|

